material/.icons/material/alpha-s-circle.svg

<svg xmlns="http://www.w3.org/2000/svg" viewBox="0 0 24 24"><path d="M11 7a2 2 0 00-2 2v2a2 2 0 002 2h2v2H9v2h4a2 2 0 002-2v-2a2 2 0 00-2-2h-2V9h4V7h-4m1-5a10 10 0 0110 10 10 10 0 01-10 10A10 10 0 012 12 10 10 0 0112 2z"/></svg>

<?xml version="1.0" encoding="UTF-8"?><!DOCTYPE svg PUBLIC "-//W3C//DTD SVG 1.1//EN" "http://www.w3.org/Graphics/SVG/1.1/DTD/svg11.dtd"><svg xmlns="http://www.w3.org/2000/svg" xmlns:xlink="http://www.w3.org/1999/xlink" version="1.1" id="mdi-alpha-s-circle" width="24" height="24" viewBox="0 0 24 24"><path d="M11,7A2,2 0 0,0 9,9V11A2,2 0 0,0 11,13H13V15H9V17H13A2,2 0 0,0 15,15V13A2,2 0 0,0 13,11H11V9H15V7H11M12,2A10,10 0 0,1 22,12A10,10 0 0,1 12,22A10,10 0 0,1 2,12A10,10 0 0,1 12,2Z" /></svg>
